X: 229
T:Souters of Selkirk
G:jig
M:9/8
L:1/8
Q:3/8=132
K:G
A|Bde dBg  dBG|Bde dBg  f2
A|Bde dBg  dBG|cde dBg  f2:|
A|GBd g>fe dcB|GBd g>fe f2
A|GBd g>fe dcB|cde dBg  f2:|

This Shetland tune appears to be centred on G, but begins with the tonal
centre on E and ends on the dominant:

